X:1
T:Cello Suite No. 1
T:Cello Suite No. 1
T:BWV. 1007
T:Johann Sebastian Bach
C:Johann Sebastian Bach
%%score { 1 | 2 }
L:1/8
Q:1/4=72
M:4/4
K:D
V:1 treble nm="Mandolin" snm="Mdn."
V:2 tab stafflines=4 strings=G3,D4,A4,E5 
V:1
"D""^Prélude." (D/A/f/)e/ f/A/f/A/ (D/A/f/)e/ f/A/f/A/ | %1
"G" (D/B/g/)f/ g/B/g/B/ (D/B/g/)f/ g/B/g/B/ |"A7" (D/c/g/)f/ g/c/g/c/ (D/c/g/)f/ g/c/g/c/ | %3
"D" (D/d/f/)e/ f/d/f/d/ (D/d/f/)e/ f/d/f/c/ | (D/d/f/)e/ f/d/c/d/ B/d/c/d/ F/A/^G/F/ | %5
"E75" (^G/d/e/)d/ e/d/e/d/ (G/d/e/)d/ e/d/e/d/ |"D" (c/e/a/)^g/ a/e/d/e/ c/e/d/e/ A/c/B/A/ | %7
"Bm" (B,/F/d/)c/ d/F/d/F/ (B,/F/d/)c/ d/F/d/F/ | B,/^G/A/B/ A/G/F/E/ (d/c/B/)a/ ^g/f/e/d/ | %9
 (c/B/A/)a/ e/a/c/e/ (A/B/c/)e/ d/c/B/A/ |"Adim" ^d/(A/=c/B/) c/A/^d/A/ f/(A/=c/B/) c/A/^d/c/ | %11
"Em" (G/B/e/)f/ g/e/B/A/ (G/B/e/)f/ g/e/^c/B/ |"Edim" (^A/c/A/)c/ e/c/e/c/ (A/c/A/)c/ e/c/e/c/ | %13
 (d/c/B/)d/ c/d/e/c/ d/c/B/A/ G/F/E/D/ |"A75" (C/G/A/)G/ A/G/A/G/ (C/G/A/)G/ A/G/A/G/ | %15
"D7" (D/F/=c/)B/ c/F/c/F/ (D/F/=c/)B/ c/F/c/F/ |"G" (D/G/B/)A/ B/G/B/G/ (D/G/B/)A/ B/G/B/G/ | %17
"A7" (D/c/g/)f/ g/c/g/c/ (D/c/g/)f/ g/c/g/c/ |"D" (D/A/f/)e/ f/d/c/B/ A/G/F/E/ D/C/B,/A,/ | %19
"E7" (^G,/E/B/)c/ d/B/c/d/ (G,/E/B/)c/ d/B/c/d/ | (=G,/E/A/)B/ c/A/B/c/ (=G,/E/A/)B/ c/A/B/c/ | %21
 (G,/E/A/)c/ (e/^g/!fermata!a-) a/E/F/=G/ A/B/c/d/ | e/c/A/B/ c/d/e/f/ g/e/c/d/ e/f/g/a/ | %23
 (_b/a/^g/a/) (a/=g/f/g/) g/e/c/=B/ A/E/F/G/ | (A,/E/A/)c/ e/f/g/e/ f/d/A/G/ F/D/E/F/ | %25
 (A,/D/F/)A/ d/e/f/d/ (^g/=f/e/f/) (f/e/^d/e/) | (e/=d/c/)d/ d/B/^G/F/ (E/G/B/)d/ e/^g/a/g/ | %27
 (a/e/c/)B/ c/e/A/c/ E/A/^G/F/ E/D/C/B,/ | A,(=g/f/ e/d/c/B/) A/(g/f/e/ d/c/B/A/) | %29
 G/(f/e/d/ c/B/A/G/) F/(e/d/c/ B/A/G/F/) | E/d/c/B/ c/e/A/e/ B/e/c/e/ d/e/B/e/ | %31
 c/e/A/e/ d/e/B/e/ c/e/A/e/ d/e/B/e/ | c/e/A/e/ B/e/c/e/ d/e/e/e/ f/e/A/e/ | %33
 e/e/f/e/ g/e/A/e/ f/e/g/e/ a/e/f/e/ | g/e/f/e/ g/e/e/e/ f/e/e/e/ f/e/d/e/ | %35
 e/e/d/e/ e/e/c/e/ d/e/c/e/ d/e/B/e/ | c/e/A/B/ =c/A/^c/A/ d/A/^d/A/ e/A/=f/A/ | %37
 ^f/A/g/A/ ^g/A/a/A/ _b/A/=b/A/ =c'/A/^c'/A/ |"D" (d'/f/A/)f/ d'/f/d'/f/ (d'/f/A/)f/ d'/f/d'/f/ | %39
"Dsus2" (d'/e/A/)e/ d'/e/d'/e/ (d'/e/A/)e/ d'/e/d'/e/ | %40
"A7" (c'/g/A/)g/ c'/g/c'/g/ (c'/g/A/)g/ c'/g/c'/g/ |"D" !arpeggio!!fermata![Dfd']8 |] %42
V:2
 (!3!D/!2!A/!1!f/)!1!e/ !1!f/!2!A/!1!f/!2!A/ (!3!D/!2!A/!1!f/)!1!e/ !1!f/!2!A/!1!f/!2!A/ | %1
 (!3!D/!2!B/!1!g/)!1!f/ !1!g/!2!B/!1!g/!2!B/ (!3!D/!2!B/!1!g/)!1!f/ !1!g/!2!B/!1!g/!2!B/ | %2
 (!3!D/!2!c/!1!g/)!1!f/ !1!g/!2!c/!1!g/!2!c/ (!3!D/!2!c/!1!g/)!1!f/ !1!g/!2!c/!1!g/!2!c/ | %3
 (!3!D/!2!d/!1!f/)!1!e/ !1!f/!2!d/!1!f/!2!d/ (!3!D/!2!d/!1!f/)!1!e/ !1!f/!2!d/!1!f/!2!c/ | %4
 (!3!D/!2!d/!1!f/)!1!e/ !1!f/!2!d/!2!c/!2!d/ !2!B/!2!d/!2!c/!2!d/ !3!F/!2!A/!3!^G/!3!F/ | %5
 (!3!^G/!2!d/!1!e/)!2!d/ !1!e/!2!d/!1!e/!2!d/ (!3!G/!2!d/!1!e/)!2!d/ !1!e/!2!d/!1!e/!2!d/ | %6
 (!2!c/!1!e/!1!a/)!1!^g/ !1!a/!1!e/!2!d/!1!e/ !2!c/!1!e/!2!d/!1!e/ !2!A/!2!c/!2!B/!2!A/ | %7
 (!4!B,/!3!F/!2!d/)!2!c/ !2!d/!3!F/!2!d/!3!F/ (!4!B,/!3!F/!2!d/)!2!c/ !2!d/!3!F/!2!d/!3!F/ | %8
 !4!B,/!3!^G/!2!A/!2!B/ !2!A/!3!G/!3!F/!3!E/ (!2!d/!2!c/!2!B/)!1!a/ !1!^g/!1!f/!1!e/!2!d/ | %9
 (!2!c/!2!B/!2!A/)!1!a/ !1!e/!1!a/!2!c/!1!e/ (!2!A/!2!B/!2!c/)!1!e/ !2!d/!2!c/!2!B/!2!A/ | %10
 !2!^d/(!2!A/!2!=c/!2!B/) !2!c/!2!A/!2!^d/!2!A/ !1!f/(!2!A/!2!=c/!2!B/) !2!c/!2!A/!2!^d/!2!c/ | %11
 (!3!G/!2!B/!1!e/)!1!f/ !1!g/!1!e/!2!B/!2!A/ (!3!G/!2!B/!1!e/)!1!f/ !1!g/!1!e/!2!^c/!2!B/ | %12
 (!2!^A/!2!c/!2!A/)!2!c/ !1!e/!2!c/!1!e/!2!c/ (!2!A/!2!c/!2!A/)!2!c/ !1!e/!2!c/!1!e/!2!c/ | %13
 (!2!d/!2!c/!2!B/)!2!d/ !2!c/!2!d/!1!e/!2!c/ !2!d/!2!c/!2!B/!2!A/ !3!G/!3!F/!3!E/!3!D/ | %14
 (!4!C/!3!G/!2!A/)!3!G/ !2!A/!3!G/!2!A/!3!G/ (!4!C/!3!G/!2!A/)!3!G/ !2!A/!3!G/!2!A/!3!G/ | %15
 (!3!D/!3!F/!2!=c/)!2!B/ !2!c/!3!F/!2!c/!3!F/ (!3!D/!3!F/!2!=c/)!2!B/ !2!c/!3!F/!2!c/!3!F/ | %16
 (!3!D/!3!G/!2!B/)!2!A/ !2!B/!3!G/!2!B/!3!G/ (!3!D/!3!G/!2!B/)!2!A/ !2!B/!3!G/!2!B/!3!G/ | %17
 (!3!D/!2!c/!1!g/)!1!f/ !1!g/!2!c/!1!g/!2!c/ (!3!D/!2!c/!1!g/)!1!f/ !1!g/!2!c/!1!g/!2!c/ | %18
 (!3!D/!2!A/!1!f/)!1!e/ !1!f/!2!d/!2!c/!2!B/ !2!A/!3!G/!3!F/!3!E/ !3!D/!4!C/!4!B,/!4!A,/ | %19
 (!4!^G,/!3!E/!2!B/)!2!c/ !2!d/!2!B/!2!c/!2!d/ (!4!G,/!3!E/!2!B/)!2!c/ !2!d/!2!B/!2!c/!2!d/ | %20
 (!4!=G,/!3!E/!2!A/)!2!B/ !2!c/!2!A/!2!B/!2!c/ (!4!=G,/!3!E/!2!A/)!2!B/ !2!c/!2!A/!2!B/!2!c/ | %21
 (!4!G,/!3!E/!2!A/)!2!c/ (!1!e/!1!^g/!fermata!!1!a-) !1!a/!3!E/!3!F/!3!=G/ !2!A/!2!B/!2!c/!2!d/ | %22
 !1!e/!2!c/!2!A/!2!B/ !2!c/!2!d/!1!e/!1!f/ !1!g/!1!e/!2!c/!2!d/ !1!e/!1!f/!1!g/!1!a/ | %23
 (!1!_b/!1!a/!1!^g/!1!a/) (!1!a/!1!=g/!1!f/!1!g/) !1!g/!1!e/!2!c/!2!=B/ !2!A/!3!E/!3!F/!3!G/ | %24
 (!4!A,/!3!E/!2!A/)!2!c/ !1!e/!1!f/!1!g/!1!e/ !1!f/!2!d/!2!A/!3!G/ !3!F/!3!D/!3!E/!3!F/ | %25
 (!4!A,/!3!D/!3!F/)!2!A/ !2!d/!1!e/!1!f/!2!d/ (!1!^g/!1!_f/!1!e/!1!=f/) (!1!f/!1!e/!2!^d/!1!e/) | %26
 (!1!e/!2!=d/!2!c/)!2!d/ !2!d/!2!B/!3!^G/!3!F/ (!3!E/!3!G/!2!B/)!2!d/ !1!e/!1!^g/!1!a/!1!g/ | %27
 (!1!a/!1!e/!2!c/)!2!B/ !2!c/!1!e/!2!A/!2!c/ !3!E/!2!A/!3!^G/!3!F/ !3!E/!3!D/!4!C/!4!B,/ | %28
 !4!A,(!1!=g/!1!f/ !1!e/!2!d/!2!c/!2!B/) !2!A/(!1!g/!1!f/!1!e/ !2!d/!2!c/!2!B/!2!A/) | %29
 !3!G/(!1!f/!1!e/!2!d/ !2!c/!2!B/!2!A/!3!G/) !3!F/(!1!e/!2!d/!2!c/ !2!B/!2!A/!3!G/!3!F/) | %30
 !3!E/!2!d/!2!c/!2!B/ !2!c/!1!e/!2!A/!1!e/ !2!B/!1!e/!2!c/!1!e/ !2!d/!1!e/!2!B/!1!e/ | %31
 !2!c/!1!e/!2!A/!1!e/ !2!d/!1!e/!2!B/!1!e/ !2!c/!1!e/!2!A/!1!e/ !2!d/!1!e/!2!B/!1!e/ | %32
 !2!c/!1!e/!2!A/!1!e/ !2!B/!1!e/!2!c/!1!e/ !2!d/!1!e/!2!e/!1!e/ !2!f/!1!e/!2!A/!1!e/ | %33
 !2!e/!1!e/!2!f/!1!e/ !2!g/!1!e/!2!A/!1!e/ !2!f/!1!e/!2!g/!1!e/ !2!a/!1!e/!2!f/!1!e/ | %34
 !2!g/!1!e/!2!f/!1!e/ !2!g/!1!e/!2!e/!1!e/ !2!f/!1!e/!2!e/!1!e/ !2!f/!1!e/!2!d/!1!e/ | %35
 !2!e/!1!e/!2!d/!1!e/ !2!e/!1!e/!2!c/!1!e/ !2!d/!1!e/!2!c/!1!e/ !2!d/!1!e/!2!B/!1!e/ | %36
 !2!c/!1!e/!2!A/!2!B/ !2!=c/!2!A/!2!^c/!2!A/ !2!d/!2!A/!2!^d/!2!A/ !1!e/!2!A/!1!_f/!2!A/ | %37
 !1!=f/!2!A/!1!g/!2!A/ !1!^g/!2!A/!1!a/!2!A/ !1!_b/!2!A/!1!=b/!2!A/ !1!=c'/!2!A/!1!^c'/!2!A/ | %38
 (!1!d'/!2!f/!2!A/)!2!f/ !1!d'/!2!f/!1!d'/!2!f/ (!1!d'/!2!f/!2!A/)!2!f/ !1!d'/!2!f/!1!d'/!2!f/ | %39
 (!1!d'/!1!e/!2!A/)!1!e/ !1!d'/!1!e/!1!d'/!1!e/ (!1!d'/!1!e/!2!A/)!1!e/ !1!d'/!1!e/!1!d'/!1!e/ | %40
 (!1!c'/!2!g/!2!A/)!2!g/ !1!c'/!2!g/!1!c'/!2!g/ (!1!c'/!2!g/!2!A/)!2!g/ !1!c'/!2!g/!1!c'/!2!g/ | %41
 !arpeggio!!fermata![!3!D!2!f!1!d']8 |] %42

